X:271
T:Are You Ready Yet?
O:england
M:C|
L:1/8
Q:220
C:Tom Doorley
R:reel
K:EMin
|:B2AF EGFE|FDFA dAFA|BAAF EGFE|FGFD ~B3A|
B2AF ~E3G|FDFA dAFA|BAAF EGFE|FGFD ~B3A:|
:Beed ~e3z|gefa gfeg|fdBA ~B2fB|gBfB edBA|
Beed ~e3f|gefa ~g3z|bage aged|Bgfd ~e3z:|
:BAGF ~G3B|dBAG FEDF|E2BA (3B^cd eg|e~f3 e2fe|
edBe dBAF|BAGF EFGA|BedB AcBA|GAFA E3z:|


